source/img/iconmonstr-skype-1.svg

<svg width="31" height="31" viewBox="0 0 31 31" version="1.1" xmlns="http://www.w3.org/2000/svg" xmlns:xlink="http://www.w3.org/1999/xlink">
<title>iconmonstr-skype-1</title>
<desc>Created using Figma</desc>
<g id="Canvas" transform="translate(-93 -38)">
<g id="iconmonstr-skype-1">
<g id="Vector">
<use xlink:href="#path0_fill" transform="translate(97.9214 43.7702)" fill="#FFFFFF"/>
<use xlink:href="#path0_fill" transform="translate(97.9214 43.7702)" fill="url(#paint1_linear)"/>
</g>
<g id="Ellipse">
<use xlink:href="#path1_stroke" transform="translate(94 39.4202)" fill="#FFFFFF" style="mix-blend-mode:hard-light"/>
<use xlink:href="#path1_stroke" transform="translate(94 39.4202)" fill="url(#paint3_linear)"/>
</g>
</g>
</g>
<defs>
<linearGradient id="paint1_linear" x1="0" y1="0" x2="1" y2="0" gradientUnits="userSpaceOnUse" gradientTransform="matrix(1.25083e-15 20.3 -20.4277 1.24302e-15 20.4277 -1.24302e-15)">
<stop offset="0" stop-color="#666463"/>
<stop offset="1" stop-color="#918484" stop-opacity="0"/>
</linearGradient>
<linearGradient id="paint3_linear" x1="0" y1="0" x2="1" y2="0" gradientUnits="userSpaceOnUse" gradientTransform="matrix(1.77574e-15 29 -29 1.77574e-15 29 -1.77574e-15)">
<stop offset="0" stop-color="#666463"/>
<stop offset="1" stop-color="#FFFFFF" stop-opacity="0"/>
</linearGradient>
<path id="path0_fill" d="M 19.5659 11.8127C 20.7209 5.24491 14.956 -0.37729 8.4566 0.834778C 3.50201 -2.17721 -2.18543 3.56341 0.8515 8.47173C -0.329056 15.0243 5.43413 20.7193 11.9872 19.4759C 16.9512 22.4668 22.6207 16.7185 19.5659 11.8127ZM 10.5411 16.7955C 7.83355 16.7955 5.1124 15.5707 5.12602 13.4621C 5.13027 12.826 5.60607 12.2424 6.24018 12.2424C 7.8344 12.2424 7.81908 14.6065 10.3572 14.6065C 12.1387 14.6065 12.7464 13.6372 12.7464 12.9622C 12.7464 10.5212 5.04941 12.0174 5.04941 7.42798C 5.04941 4.94295 7.09389 3.231 10.3087 3.41793C 13.3746 3.59809 15.1714 4.94295 15.345 6.19985C 15.431 7.02114 14.8837 7.66059 13.9329 7.66059C 12.5473 7.66059 12.4051 5.81584 10.0176 5.81584C 8.94005 5.81584 8.03102 6.26244 8.03102 7.23175C 8.03102 9.2575 15.6829 8.08181 15.6829 12.5402C 15.6821 15.1106 13.6206 16.7955 10.5411 16.7955Z"/>
<path id="path1_stroke" d="M 29.5 14.5C 29.5 14.1703 29.4894 13.843 29.4684 13.5185L 28.4705 13.583C 28.4901 13.8861 28.5 14.1918 28.5 14.5L 29.5 14.5ZM 29.2145 11.5731C 29.0863 10.925 28.9163 10.2919 28.7075 9.67673L 27.7606 9.99811C 27.9554 10.572 28.1139 11.1626 28.2335 11.7672L 29.2145 11.5731ZM 27.9558 7.86394C 27.6648 7.2748 27.3362 6.70759 26.9732 6.16541L 26.1422 6.72173C 26.481 7.22783 26.7877 7.75719 27.0593 8.3069L 27.9558 7.86394ZM 25.7777 4.60959C 25.3459 4.11761 24.8824 3.65414 24.3904 3.22234L 23.7308 3.97392C 24.1901 4.3771 24.6229 4.80986 25.0261 5.26924L 25.7777 4.60959ZM 22.8346 2.02682C 22.2924 1.66384 21.7252 1.33524 21.1361 1.04416L 20.6931 1.9407C 21.2428 2.2123 21.7722 2.51896 22.2783 2.85779L 22.8346 2.02682ZM 19.3233 0.292453C 18.7081 0.0836655 18.075 -0.086291 17.4269 -0.2145L 17.2328 0.766488C 17.8374 0.886102 18.428 1.04465 19.0019 1.2394L 19.3233 0.292453ZM 15.4815 -0.468384C 15.157 -0.489356 14.8297 -0.5 14.5 -0.5L 14.5 0.5C 14.8082 0.5 15.1139 0.509949 15.417 0.529535L 15.4815 -0.468384ZM 14.5 -0.5C 14.1703 -0.5 13.843 -0.489356 13.5185 -0.468384L 13.583 0.529535C 13.8861 0.509949 14.1918 0.5 14.5 0.5L 14.5 -0.5ZM 11.5731 -0.2145C 10.925 -0.0862912 10.2919 0.0836655 9.67673 0.292453L 9.99811 1.2394C 10.572 1.04465 11.1626 0.886102 11.7672 0.766488L 11.5731 -0.2145ZM 7.86394 1.04416C 7.2748 1.33524 6.70759 1.66384 6.16541 2.02682L 6.72173 2.85779C 7.22783 2.51896 7.75719 2.2123 8.3069 1.9407L 7.86394 1.04416ZM 4.60959 3.22234C 4.11761 3.65414 3.65414 4.11761 3.22234 4.6096L 3.97392 5.26924C 4.3771 4.80986 4.80986 4.3771 5.26924 3.97392L 4.60959 3.22234ZM 2.02682 6.16541C 1.66384 6.70759 1.33524 7.2748 1.04416 7.86394L 1.9407 8.3069C 2.2123 7.75719 2.51896 7.22783 2.85779 6.72173L 2.02682 6.16541ZM 0.292453 9.67673C 0.0836655 10.2919 -0.086291 10.925 -0.2145 11.5731L 0.766488 11.7672C 0.886102 11.1626 1.04465 10.572 1.2394 9.99811L 0.292453 9.67673ZM -0.468384 13.5185C -0.489356 13.843 -0.5 14.1703 -0.5 14.5L 0.5 14.5C 0.5 14.1918 0.509949 13.8861 0.529535 13.583L -0.468384 13.5185ZM -0.5 14.5C -0.5 14.8297 -0.489356 15.157 -0.468384 15.4815L 0.529535 15.417C 0.509949 15.1139 0.5 14.8082 0.5 14.5L -0.5 14.5ZM -0.2145 17.4269C -0.0862912 18.075 0.0836655 18.7081 0.292453 19.3233L 1.2394 19.0019C 1.04465 18.428 0.886102 17.8374 0.766488 17.2328L -0.2145 17.4269ZM 1.04416 21.1361C 1.33524 21.7252 1.66384 22.2924 2.02682 22.8346L 2.85779 22.2783C 2.51896 21.7722 2.2123 21.2428 1.9407 20.6931L 1.04416 21.1361ZM 3.22234 24.3904C 3.65414 24.8824 4.11761 25.3459 4.6096 25.7777L 5.26924 25.0261C 4.80986 24.6229 4.3771 24.1901 3.97392 23.7308L 3.22234 24.3904ZM 6.16541 26.9732C 6.70759 27.3362 7.2748 27.6648 7.86394 27.9558L 8.3069 27.0593C 7.75719 26.7877 7.22783 26.481 6.72173 26.1422L 6.16541 26.9732ZM 9.67673 28.7075C 10.2919 28.9163 10.925 29.0863 11.5731 29.2145L 11.7672 28.2335C 11.1626 28.1139 10.572 27.9554 9.99811 27.7606L 9.67673 28.7075ZM 13.5185 29.4684C 13.843 29.4894 14.1703 29.5 14.5 29.5L 14.5 28.5C 14.1918 28.5 13.8861 28.4901 13.583 28.4705L 13.5185 29.4684ZM 14.5 29.5C 14.8297 29.5 15.157 29.4894 15.4815 29.4684L 15.417 28.4705C 15.1139 28.4901 14.8082 28.5 14.5 28.5L 14.5 29.5ZM 17.4269 29.2145C 18.075 29.0863 18.7081 28.9163 19.3233 28.7075L 19.0019 27.7606C 18.428 27.9554 17.8374 28.1139 17.2328 28.2335L 17.4269 29.2145ZM 21.1361 27.9558C 21.7252 27.6648 22.2924 27.3362 22.8346 26.9732L 22.2783 26.1422C 21.7722 26.481 21.2428 26.7877 20.6931 27.0593L 21.1361 27.9558ZM 24.3904 25.7777C 24.8824 25.3459 25.3459 24.8824 25.7777 24.3904L 25.0261 23.7308C 24.6229 24.1901 24.1901 24.6229 23.7308 25.0261L 24.3904 25.7777ZM 26.9732 22.8346C 27.3362 22.2924 27.6648 21.7252 27.9558 21.1361L 27.0593 20.6931C 26.7877 21.2428 26.481 21.7722 26.1422 22.2783L 26.9732 22.8346ZM 28.7075 19.3233C 28.9163 18.7081 29.0863 18.075 29.2145 17.4269L 28.2335 17.2328C 28.1139 17.8374 27.9554 18.428 27.7606 19.0019L 28.7075 19.3233ZM 29.4684 15.4815C 29.4894 15.157 29.5 14.8297 29.5 14.5L 28.5 14.5C 28.5 14.8082 28.4901 15.1139 28.4705 15.417L 29.4684 15.4815Z"/>
</defs>
</svg>

<svg width="31" height="31" xmlns="http://www.w3.org/2000/svg" xmlns:xlink="http://www.w3.org/1999/xlink"><g transform="translate(4.921 5.77)"><use xlink:href="#path0_fill" fill="#FFF"/><use xlink:href="#path0_fill" fill="url(#paint1_linear)"/></g><g transform="translate(1 1.42)"><use xlink:href="#path1_stroke" fill="#FFF" style="mix-blend-mode:hard-light"/><use xlink:href="#path1_stroke" fill="url(#paint3_linear)"/></g><defs><linearGradient id="paint1_linear" x2="1" gradientUnits="userSpaceOnUse" gradientTransform="matrix(0 20.3 -20.4277 0 20.428 0)"><stop offset="0" stop-color="#666463"/><stop offset="1" stop-color="#918484" stop-opacity="0"/></linearGradient><linearGradient id="paint3_linear" x2="1" gradientUnits="userSpaceOnUse" gradientTransform="matrix(0 29 -29 0 29 0)"><stop offset="0" stop-color="#666463"/><stop offset="1" stop-color="#FFF" stop-opacity="0"/></linearGradient><path id="path0_fill" d="M19.566 11.813C20.72 5.245 14.956-.377 8.456.835 3.503-2.177-2.184 3.563.853 8.472-.33 15.024 5.433 20.719 11.986 19.476c4.964 2.99 10.634-2.758 7.579-7.663zm-9.025 4.982c-2.707 0-5.429-1.224-5.415-3.333.004-.636.48-1.22 1.114-1.22 1.594 0 1.58 2.364 4.117 2.364 1.782 0 2.39-.969 2.39-1.644 0-2.44-7.698-.945-7.698-5.534 0-2.485 2.045-4.197 5.26-4.01 3.066.18 4.862 1.525 5.036 2.782.086.821-.461 1.46-1.412 1.46-1.386 0-1.528-1.844-3.915-1.844-1.078 0-1.987.446-1.987 1.416 0 2.026 7.652.85 7.652 5.308 0 2.57-2.062 4.256-5.142 4.256z"/><path id="path1_stroke" d="M29.5 14.5c0-.33-.01-.657-.032-.982l-.997.065c.02.303.029.609.029.917h1zm-.285-2.927a14.887 14.887 0 0 0-.508-1.896l-.946.321c.194.574.353 1.165.473 1.77l.98-.195zm-1.26-3.71c-.29-.588-.619-1.155-.982-1.698l-.83.557c.338.506.645 1.035.916 1.585l.897-.443zM25.779 4.61a15.089 15.089 0 0 0-1.388-1.388l-.66.752c.46.403.893.836 1.296 1.295l.752-.66zm-2.943-2.583a14.989 14.989 0 0 0-1.699-.983l-.443.897c.55.271 1.08.578 1.585.917l.557-.831zM19.323.292a14.892 14.892 0 0 0-1.896-.506l-.194.98c.604.12 1.195.279 1.769.473l.321-.947zm-3.841-.76A15.218 15.218 0 0 0 14.5-.5v1c.308 0 .614.01.917.03l.065-.998zM14.5-.5c-.33 0-.657.01-.982.032l.065.998c.303-.02.609-.03.917-.03v-1zm-2.927.285a14.89 14.89 0 0 0-1.896.507l.321.947a13.897 13.897 0 0 1 1.77-.473l-.195-.98zm-3.71 1.26c-.588.29-1.155.619-1.698.982l.557.83a13.984 13.984 0 0 1 1.585-.916l-.443-.897zM4.61 3.221A15.09 15.09 0 0 0 3.222 4.61l.752.66c.403-.46.836-.893 1.295-1.296l-.66-.752zM2.027 6.165c-.363.543-.692 1.11-.983 1.699l.897.443c.271-.55.578-1.08.917-1.585l-.831-.557zM.292 9.677a14.89 14.89 0 0 0-.506 1.896l.98.194c.12-.604.279-1.195.473-1.769l-.947-.321zm-.76 3.841c-.021.325-.032.652-.032.982h1c0-.308.01-.614.03-.917l-.998-.065zM-.5 14.5c0 .33.01.657.032.982l.998-.065C.51 15.114.5 14.808.5 14.5h-1zm.285 2.927c.129.648.299 1.281.507 1.896l.947-.321a13.898 13.898 0 0 1-.473-1.77l-.98.195zm1.26 3.71c.29.588.619 1.155.982 1.698l.83-.557a13.985 13.985 0 0 1-.916-1.585l-.897.443zm2.177 3.253c.432.492.896.956 1.388 1.388l.66-.752c-.46-.403-.893-.836-1.296-1.295l-.752.66zm2.943 2.583c.543.363 1.11.692 1.699.983l.443-.897c-.55-.271-1.08-.578-1.585-.917l-.557.831zm3.512 1.735c.615.208 1.248.378 1.896.507l.194-.982a13.886 13.886 0 0 1-1.769-.472l-.321.947zm3.841.76c.325.021.652.032.982.032v-1c-.308 0-.614-.01-.917-.03l-.065.998zm.982.032c.33 0 .657-.01.982-.032l-.065-.997c-.303.02-.609.029-.917.029v1zm2.927-.285a14.889 14.889 0 0 0 1.896-.508l-.321-.946c-.574.194-1.165.353-1.77.473l.195.98zm3.71-1.26c.588-.29 1.155-.619 1.698-.982l-.557-.83a13.99 13.99 0 0 1-1.585.916l.443.897zm3.253-2.177c.492-.432.956-.896 1.388-1.388l-.752-.66c-.403.46-.836.893-1.295 1.296l.66.752zm2.583-2.943c.363-.543.692-1.11.983-1.699l-.897-.443a13.99 13.99 0 0 1-.917 1.585l.831.557zm1.735-3.512c.208-.615.378-1.248.507-1.896l-.982-.194c-.12.604-.278 1.195-.472 1.769l.947.321zm.76-3.841c.021-.325.032-.652.032-.982h-1c0 .308-.01.614-.03.917l.998.065z"/></defs></svg>
